images/footer/social/twit.svg

<svg width="18" height="17" viewBox="0 0 18 17" fill="none" xmlns="http://www.w3.org/2000/svg">
<path d="M16.1591 4.27972V4.75524C16.1591 10.4615 12.4773 17 5.625 17C3.57955 17 1.63636 16.2867 0 14.979H0.920455C2.65909 14.979 4.19318 14.3846 5.52273 13.1958C3.88636 13.1958 2.55682 11.8881 2.04545 10.2238C2.25 10.3427 2.45455 10.3427 2.76136 10.3427C3.17045 10.3427 3.47727 10.2238 3.78409 10.2238C1.94318 9.86713 0.715909 8.08392 0.715909 6.06294C1.22727 6.3007 1.73864 6.53846 2.45455 6.53846C1.43182 5.82517 0.818182 4.51748 0.818182 2.97203C0.818182 2.13986 1.02273 1.42657 1.32955 0.832168C3.06818 3.44755 5.82955 5.11189 8.89773 5.23077C8.79545 4.99301 8.79545 4.63636 8.79545 4.3986C8.79545 2.02098 10.4318 0 12.4773 0C13.6023 0 14.5227 0.475525 15.1364 1.30769C15.9545 1.18881 16.7727 0.713287 17.4886 0.356643C17.1818 1.30769 16.6705 2.13986 15.8523 2.73427C16.6705 2.61538 17.3864 2.37762 18 2.02098C17.4886 2.85315 16.875 3.68531 16.1591 4.27972Z" fill="white"/>
</svg>

<svg width="18" height="17" fill="none" xmlns="http://www.w3.org/2000/svg"><path d="M16.16 4.28v.475C16.16 10.461 12.476 17 5.624 17 3.58 17 1.636 16.287 0 14.979h.92c1.74 0 3.273-.594 4.603-1.783-1.637 0-2.966-1.308-3.478-2.972.205.119.41.119.716.119.41 0 .716-.12 1.023-.12-1.84-.356-3.068-2.14-3.068-4.16.511.238 1.023.475 1.739.475C1.432 5.825.818 4.518.818 2.972c0-.832.205-1.545.512-2.14 1.738 2.616 4.5 4.28 7.568 4.399-.103-.238-.103-.595-.103-.832C8.795 2.02 10.432 0 12.477 0c1.125 0 2.046.476 2.66 1.308.817-.12 1.636-.595 2.352-.951-.307.95-.819 1.783-1.637 2.377.819-.119 1.534-.356 2.148-.713-.511.832-1.125 1.664-1.84 2.259z" fill="#fff"/></svg>
